X:1
T:In cosi dura sorte
T:Lodovico Agostini
T:In cosi dura sorte
C:Lodovico Agostini
%%score [ 1 2 3 4 ]
L:1/8
Q:1/4=84
M:3/2
K:F
V:1 treble nm="Soprano" snm="S"
V:2 alto2 nm="Alto" snm="A"
V:3 alto nm="Tenor" snm="T"
V:4 bass3 nm="Bass" snm="B"
V:1
 z12 | d6 d2 d4 | c8 B4 |[M:4/2] _A8 G4 z2 =B2 | =B4 c4 A6 A2 | A2 A2 =B2 d2 ^c4 d4 | %6
w: |In co- si|du- ra|sor- te, Con-|vien ch'en pian- to e-|ter- na- men- te i vi- va,|
 z2 d2 d3 d c2 B2 A4 | G8 G4 G4 | G8 ^F8 |[M:3/2][Q:1/4=126] G4 =B4 c4 | d8 c4 | c6 c2 c4 | B8 A4 | %13
w: Che per non vi- ver piu|bra- mo la|mor- te,|Ma se Ma-|don- na|quan- to, Vi|mi- ro|
 A6 A2 =B4 | c4 A4 G4 |[M:4/2][Q:1/4=84] d8 =B4 z2 G2 | _A4 G4 G4 F4 |[M:3/2] F6 F2 F4 | E4 A8 | %19
w: tan- to sol|io son be-|a- to, Che|sia di me se|Mor- te me|ne pri-|
 A12 |[M:1/2] (3A3/2A/A(3G3/2G/G |[M:4/2] G12 F4 | F8 E4 F4 | A4 B6 AG A4 | B4 z2 c2 c4 c4 | %25
w: va.|Fug- gi- ro, Fug- gi- ro al|bas- so in-|fer- no di-|spe- ra- * * *|to, Si che per|
 d3 d d2 d2 _e4 d4 | c8 =B4 d4 | ^c3 c c2 d2 B4 A4 |[M:3/2] B6 B2 B4 | B8 c4 | B6 B2 A4 | %31
w: ter- mi- nar la vi- ta e'l|pian- to, Ben|vo- lon- tier mo- re- i,|Ma pe- ro|chiu- der|gl'oc- chi non|
 G4 G4 ^F4 | G8 z4 | B6 B2 B4 | B8 c4 | B6 B2 A4 | G4 G4 ^F4 | G12 |] %38
w: vor- re- *|i,|Ma pe- ro|chiu- der|gl'oc- chi non|vor- re- *|i.|
V:2
 z12 | B6 B2 A4 | G8 G4 |[M:4/2] F8 E4 z2 G2 | G4 G4 ^F6 F2 | ^F2 F2 G2 G2 A4 A4 | %6
w: |In co- si|du- ra|sor- te, Con-|vien ch'en pian- to e-|ter- na- men- te i vi- va,|
 z2 B2 B3 B A2 G2 F4 | D8 D4 D4 | _E8 D8 |[M:3/2] D4 G4 A4 | F4 G4 A4 | A6 A2 G4 | G8 E4 | %13
w: Che per non vi- ver piu|bra- mo la|mor- te,|Ma se Ma-|don- * na|quan- to, Vi|mi- ro|
 ^F6 F2 G4 | G4 F4 G4 |[M:4/2] G2 FE F4 G4 z2 E2 | F4 D4 E4 C4 |[M:3/2] D6 D2 D4 | C4 F8 | E12 | %20
w: tan- to sol|io son be-|a- * * * to, Che|sia di me se|Mor- te me|ne pri-|va.|
[M:1/2] (3F3/2F/F(3D3/2D/D |[M:4/2] _E12 D4 | D8 ^C4 D4- | D2 E2 F12 | F4 z2 A2 A4 G4 | %25
w: Fug- gi- ro, Fug- gi- ro al|bas- so in-|fer- no di-|* spe- ra-|to, Si che per|
 B3 B B2 B2 B4 B4 | G8 G4 A4 | A3 A A2 A2 G4 ^F4 |[M:3/2] G6 G2 G4 | G8 G4 | G6 G2 D4 | D4 D8 | %32
w: ter- mi- nar la vi- ta e'l|pian- to, Ben|vo- lon- tier mo- re- i,|Ma pe- ro|chiu- der|gl'oc- chi non|vor- re-|
 D8 z4 | G6 G2 G4 | G8 G4 | G6 G2 D4 | D4 D8 | D12 |] %38
w: i,|Ma pe- ro|chiu- der|gl'oc- chi non|vor- re-|i.|
V:3
 z12 | G6 G2 F4 | _E8 E4 |[M:4/2] C8 C4 z2 D2 | D4 _E4 D6 D2 | D2 D2 D2 D2 E4 D4 | %6
w: |In co- si|du- ra|sor- te, Con-|vien ch'en pian- to e-|ter- na- men- te i vi- va,|
 z2 F2 F3 F F2 D2 D4 | =B,8 B,4 B,4 | C8 A,8 |[M:3/2] =B,4 D4 F4 | D8 E4 | F6 F2 _E4 | D8 ^C4 | %13
w: Che per non vi- ver piu|bra- mo la|mor- te,|Ma se Ma-|don- na|quan- to, Vi|mi- ro|
 D6 D2 D4 | _E4 D4 B,4 |[M:4/2] B,2 A,G, A,4 G,4 z2 C2 | C4 =B,4 C4 A,4 |[M:3/2] B,6 B,2 B,4 | %18
w: tan- to sol|io son be-|a- * * * to, Che|sia di me se|Mor- te me|
 G,4 D8 | ^C12 |[M:1/2] (3D3/2D/D(3=B,3/2B,/B, |[M:4/2] C12 A,4 | A,12 A,4 | F4 D4 C8 | %24
w: ne pri-|va.|Fug- gi- ro, Fug- gi- ro al|bas- so in-|fer- no|di- spe- ra-|
 D4 z2 F2 F4 E4 | F3 F F2 F2 G4 G4 | _E8 D4 F4 | E3 E E2 D2 D4 D4 |[M:3/2] D6 D2 D4 | _E8 E4 | %30
w: to, Si che per|ter- mi- nar la vi- ta e'l|pian- to, Ben|vo- lon- tier mo- re- i,|Ma pe- ro|chiu- der|
 D6 D2 A,4 | B,4 A,8 | =B,8 z4 | D6 D2 D4 | _E8 E4 | D6 D2 A,4 | B,4 A,8 | G,12 |] %38
w: gl'oc- chi non|vor- re-|i,|Ma pe- ro|chiu- der|gl'oc- chi non|vor- re-|i.|
V:4
 z12 | G,6 G,2 D,4 | _E,8 E,4 |[M:4/2] F,8 C,4 z2 G,2 | G,4 C,4 D,6 D,2 | D,2 D,2 G,2 B,2 A,4 D,4 | %6
w: |In co- si|du- ra|sor- te, Con-|vien ch'en pian- to e-|ter- na- men- te i vi- va,|
 z2 B,2 B,3 B, F,2 G,2 D,4 | G,8 G,4 G,4 | C,8 D,8 |[M:3/2] G,4 G,4 F,4 | B,8 A,4 | F,6 F,2 C,4 | %12
w: Che per non vi- ver piu|bra- mo la|mor- te,|Ma se Ma-|don- na|quan- to, Vi|
 G,8 A,4 | D,6 D,2 G,4 | C,4 D,4 _E,4 |[M:4/2] D,8 G,4 z2 C,2 | F,4 G,4 E,4 F,4 | %17
w: mi- ro|tan- to sol|io son be-|a- to, Che|sia di me se|
[M:3/2] B,,6 B,,2 B,,4 | C,4 D,8 | A,12 |[M:1/2] (3D,3/2D,/D,(3G,3/2G,/G, |[M:4/2] C,12 D,4 | %22
w: Mor- te me|ne pri-|va.|Fug- gi- ro, Fug- gi- ro al|bas- so in-|
 D,8 A,,4 D,4- | D,4 B,,4 F,8 | B,,4 z2 F,2 F,4 C4 | B,3 B, B,2 B,2 _E,4 G,4 | C,8 G,4 D,4 | %27
w: fer- no di-|* spe- ra-|to, Si che per|ter- mi- nar la vi- ta e'l|pian- to, Ben|
 A,3 A, A,2 ^F,2 G,4 D,4 |[M:3/2] G,6 G,2 G,4 | _E,8 C,4 | G,6 G,2 ^F,4 | G,4 D,8 | G,8 z4 | %33
w: vo- lon- tier mo- re- i,|Ma pe- ro|chiu- der|gl'oc- chi non|vor- re-|i,|
 G,6 G,2 G,4 | _E,8 C,4 | G,6 G,2 ^F,4 | G,4 D,8 | G,12 |] %38
w: Ma pe- ro|chiu- der|gl'oc- chi non|vor- re-|i.|

